X: 4
T: The Belfast
R: hornpipe
M: 4/4
L: 1/8
K: Dmaj
a2g|faf dfd AdA FAF|D2F A2d f3 e2f|gbg ege cec A2F|G2A B2G E3 a2g|faf dfd AdA FAF|D2F A2d f3 e2f|g2f e2d c2A B2c|d3 f3 d3:|


Tune 4	Setting 12350

